markets/TSLA.svg

<svg width="42" height="42" viewBox="0 0 42 42" fill="none" xmlns="http://www.w3.org/2000/svg">
<circle cx="21" cy="21" r="21" fill="#06061B"/>
<path d="M21.1202 15.0453L23.8495 11.7067C27.2692 11.8932 30.4539 12.7085 33.3542 14.0402L33.192 13.9729C32.279 15.1623 31.0748 16.0857 29.6853 16.6429L29.629 16.6628C29.468 15.0751 28.3565 14.6878 24.8277 14.6878L21.1213 35.6088L17.3929 14.6834C13.8861 14.6834 12.7745 15.074 12.6124 16.6606C11.1678 16.0879 9.96472 15.1689 9.06597 14.0027L9.05164 13.9839C11.7876 12.7173 14.9723 11.8998 18.3247 11.7144L18.392 11.7111L21.1213 15.0453H21.1202ZM21.1202 10.7424C21.2382 10.7402 21.3771 10.7402 21.5161 10.7402C25.8907 10.7402 30.0492 11.667 33.8052 13.3352L33.6122 13.2591C33.8735 12.8244 34.1228 12.3179 34.329 11.7906L34.3532 11.7211C30.4374 10.1069 25.894 9.15808 21.1312 9.13049H21.1202C16.3475 9.15697 11.803 10.1058 7.64673 11.8093L7.88713 11.7222C8.13415 12.3345 8.38227 12.842 8.66237 13.3308L8.62818 13.2668C12.1989 11.6692 16.3662 10.7391 20.7519 10.7391C20.882 10.7391 21.011 10.7402 21.14 10.7413H21.1202V10.7424Z" fill="white"/>
</svg>

<svg xmlns="http://www.w3.org/2000/svg" width="42" height="42" fill="none"><circle cx="21" cy="21" r="21" fill="#06061B"/><path fill="#fff" d="m21.12 15.045 2.73-3.338a26.055 26.055 0 0 1 9.504 2.333l-.162-.067a8.328 8.328 0 0 1-3.507 2.67l-.056.02c-.161-1.588-1.273-1.975-4.801-1.975l-3.707 20.92-3.728-20.925c-3.507 0-4.619.391-4.78 1.978a8.31 8.31 0 0 1-3.547-2.658l-.014-.02c2.736-1.266 5.92-2.083 9.273-2.269l.067-.003 2.73 3.334h-.002Zm0-4.303c.118-.002.257-.002.396-.002a30.2 30.2 0 0 1 12.29 2.595l-.194-.076c.261-.435.51-.941.717-1.468l.024-.07c-3.916-1.614-8.459-2.563-13.222-2.59h-.01a35.962 35.962 0 0 0-13.474 2.678l.24-.087c.247.613.495 1.12.775 1.609l-.034-.064c3.57-1.598 7.738-2.528 12.124-2.528l.388.002h-.02v.001Z"/></svg>
